_site/images/homepage/icon-check.svg

<svg fill="none" height="23" viewBox="0 0 23 23" width="23" xmlns="http://www.w3.org/2000/svg"><path clip-rule="evenodd" d="m11.5 0c-6.35127 0-11.5 5.14873-11.5 11.5 0 6.3513 5.14873 11.5 11.5 11.5 6.3513 0 11.5-5.1487 11.5-11.5 0-3.04999-1.2116-5.97505-3.3683-8.13173-2.1566-2.15666-5.0817-3.36827-8.1317-3.36827zm3.1278 7.80804-4.93348 4.94506-1.89749-1.8976c-.28105-.3281-.72234-.4711-1.14244-.37-.42009.101-.74809.429-.84914.8491-.10106.4201.04189.8614.37008 1.1425l2.70249 2.7139c.21703.2153.51083.3353.8165.3336.3017-.0013.59078-.1211.80498-.3336l5.75-5.74996c.2177-.21593.3402-.50986.3402-.8165 0-.30662-.1225-.60057-.3402-.8165-.4485-.44587-1.1729-.44587-1.6215 0zm-12.32848 3.69176c0 5.081 4.11898 9.2 9.19998 9.2 2.44 0 4.7801-.9693 6.5054-2.6946s2.6946-4.0654 2.6946-6.5054c0-5.08101-4.119-9.2-9.2-9.2s-9.19998 4.11899-9.19998 9.2z" fill="#00b6ab" fill-rule="evenodd"/></svg>

<svg width="23" height="23" viewBox="0 0 23 23" fill="none" xmlns="http://www.w3.org/2000/svg">
<path fill-rule="evenodd" clip-rule="evenodd" d="M11.5 0C5.14873 0 0 5.14873 0 11.5C0 17.8513 5.14873 23 11.5 23C17.8513 23 23 17.8513 23 11.5C23 8.45001 21.7884 5.52495 19.6317 3.36827C17.4751 1.21161 14.55 0 11.5 0ZM14.6278 7.80804L9.69432 12.7531L7.79683 10.8555C7.51578 10.5274 7.07449 10.3844 6.65439 10.4855C6.2343 10.5865 5.9063 10.9145 5.80525 11.3346C5.70419 11.7547 5.84714 12.196 6.17533 12.4771L8.87782 15.191C9.09485 15.4063 9.38865 15.5263 9.69432 15.5246C9.99602 15.5233 10.2851 15.4035 10.4993 15.191L16.2493 9.44104C16.467 9.22511 16.5895 8.93118 16.5895 8.62454C16.5895 8.31792 16.467 8.02397 16.2493 7.80804C15.8008 7.36217 15.0764 7.36217 14.6278 7.80804ZM2.29932 11.4998C2.29932 16.5808 6.4183 20.6998 11.4993 20.6998C13.9393 20.6998 16.2794 19.7305 18.0047 18.0052C19.73 16.2799 20.6993 13.9398 20.6993 11.4998C20.6993 6.41879 16.5803 2.2998 11.4993 2.2998C6.4183 2.2998 2.29932 6.41879 2.29932 11.4998Z" fill="#00B6AB"/>
</svg>
